packages/core/src/svgs/bmx.svg

<svg width="24" height="24" viewBox="0 0 24 24" fill="none" xmlns="http://www.w3.org/2000/svg">
<g clip-path="url(#clip0_31_7233)">
<path d="M0 0H24V24H0V0Z" fill="#F0F3FA"/>
<path d="M8.14287 5.35721H10.5C13.1829 5.40007 13.7272 5.38293 14.4986 5.73864C15.0419 6.00297 15.5137 6.39394 15.8743 6.87864L16.1314 7.25578L15.7029 6.89578C14.7043 6.03864 14.4 5.83293 11.5714 5.78578H9.00002V6.44578L11.1429 6.42864C13.8857 6.42864 14.4214 6.59578 15.21 7.24293C15.6472 7.59436 15.7629 7.86007 15.3472 7.54293C14.7643 7.11436 14.5329 6.90007 12.4286 6.85721H10.2857V7.54293L12.4286 7.50007C13.71 7.50007 15.6857 8.00578 15.6943 9.1115C15.7029 10.2172 15.0686 10.2858 13.9286 10.2858C13.2857 10.2858 12.2229 10.2686 11.4943 10.2858H10.2857V10.9286H12.2143C13.6414 10.9629 15.2914 11.1001 16.3372 12.2058C16.8643 12.7629 16.9714 12.9986 16.5172 12.6001C15.1543 11.4215 13.2514 11.5801 11.5714 11.5715H9.00002V12.2144H11.5714C14.55 12.2572 15.0729 12.2915 15.6857 12.7072C15.9814 12.9215 16.5772 13.5344 16.5257 13.5901C16.5086 13.6072 16.3672 13.5086 16.2086 13.3758C15.6257 12.8872 15.4114 12.8872 12.8572 12.8572C10.5943 12.8315 10.7143 12.9215 10.7143 13.0715C10.7143 13.2215 10.56 13.2429 12.4286 13.2858C13.7014 13.3158 17.0614 13.0544 16.4486 15.2401C16.0714 16.5001 11.4943 16.2858 10.0714 16.2858C6.64287 16.2858 6.42859 16.3415 6.42859 16.5001C6.42859 16.6672 6.74145 16.7401 11.1429 16.7144C12.4714 16.7058 15.4286 16.7144 16.3114 16.2644C16.41 16.1701 16.4872 16.1315 16.4872 16.1701C16.4872 16.2644 16.0114 16.7444 15.6857 16.9715C15.24 17.2886 14.7729 17.3101 13.0714 17.3572H11.3572L11.3443 18.0129H12.54C15.0429 18.0129 16.0972 17.6786 16.8729 16.6501C17.22 16.2001 17.2586 16.2558 16.9586 16.7615C16.586 17.3222 16.0773 17.7793 15.48 18.0901C14.5372 18.5401 14.3057 18.6044 11.1429 18.6429H8.14287V19.2858H10.9886C13.0243 19.2558 15.2829 19.3501 16.86 17.8158C17.6657 17.0101 18 16.1701 18 14.8629C18 13.6372 17.6572 12.6601 16.9886 11.9358C16.8549 11.8074 16.7369 11.6635 16.6372 11.5072C16.6372 11.4729 16.7357 11.2458 16.86 10.9929C17.3057 10.0715 17.34 8.56293 16.9414 7.44436C16.4486 6.0815 15.12 5.0915 13.38 4.80007C13.1143 4.75721 11.7986 4.71436 10.4614 4.71436H8.14287V5.35721Z" fill="#17D5CF"/>
<path d="M8.14282 7.07122C8.14282 7.29408 8.17711 7.30265 8.76854 7.27265C9.30425 7.23836 9.40282 7.20836 9.42425 7.04122C9.44568 6.87836 9.38139 6.85693 8.79854 6.85693C8.18568 6.85693 8.14282 6.86979 8.14282 7.07122ZM8.57139 8.35693C8.57139 8.57122 8.62282 8.57122 11.1428 8.57122C13.6628 8.57122 13.7143 8.57122 13.7143 8.35693C13.7143 8.14265 13.6628 8.14265 11.1428 8.14265C8.62282 8.14265 8.57139 8.14265 8.57139 8.35693Z" fill="#42ACAA"/>
<path d="M7.28577 9.21417V9.42845H10.2858L10.2643 9.23131C10.2429 9.04274 10.2343 9.04274 8.76434 9.01702L7.28577 8.99988V9.21417ZM11.1601 9.12417C11.0743 9.40274 11.2586 9.44988 12.4886 9.42417C13.6543 9.39417 13.7143 9.38559 13.7143 9.20988C13.7143 9.03845 13.6543 9.03417 12.4586 9.00417C11.3743 8.98702 11.2072 9.00417 11.1601 9.12417ZM8.14291 14.3613C8.14291 14.5713 8.18577 14.5927 8.76862 14.5585C9.29577 14.5242 9.39862 14.4942 9.42434 14.327C9.45005 14.1642 9.3772 14.1427 8.79862 14.1427C8.19005 14.1427 8.14291 14.1642 8.14291 14.3613Z" fill="#17D5CF"/>
<path d="M9.8572 14.3574C9.8572 14.5631 9.90862 14.5716 11.7858 14.5716C13.6629 14.5716 13.7143 14.5631 13.7143 14.3574C13.7143 14.1516 13.6629 14.1431 11.7858 14.1431C9.90862 14.1431 9.8572 14.1516 9.8572 14.3574ZM7.28577 15.2145C7.28577 15.4202 7.3372 15.4288 9.00005 15.4288C10.6629 15.4288 10.7143 15.4202 10.7143 15.2145C10.7143 15.0088 10.6629 15.0002 9.00005 15.0002C7.3372 15.0002 7.28577 15.0088 7.28577 15.2145Z" fill="#42ACAA"/>
<path d="M11.5715 15.2143C11.5715 15.42 11.6229 15.4286 12.6429 15.4286C13.6629 15.4286 13.7143 15.42 13.7143 15.2143C13.7143 15.0086 13.6629 15 12.6429 15C11.6229 15 11.5715 15.0086 11.5715 15.2143ZM7.28577 17.7857C7.28577 17.9914 7.34148 18 9.00005 18C10.6586 18 10.7143 17.9914 10.7143 17.7857C10.7143 17.58 10.6586 17.5714 9.00005 17.5714C7.34148 17.5714 7.28577 17.58 7.28577 17.7857Z" fill="#17D5CF"/>
<path d="M6.42859 19.0712V19.2855H7.28573V18.8569H6.42859V19.0712Z" fill="#42ACAA"/>
</g>
<defs>
<clipPath id="clip0_31_7233">
<rect width="24" height="24" fill="white"/>
</clipPath>
</defs>
</svg>

<svg xmlns="http://www.w3.org/2000/svg" width="24" height="24" fill="none" viewBox="0 0 24 24"><g clip-path="url(#a)"><path fill="#F0F3FA" d="M0 0h24v24H0z"/><path fill="#17D5CF" d="M8.143 5.357H10.5c2.683.043 3.227.026 3.999.382a3.8 3.8 0 0 1 1.375 1.14l.257.377-.428-.36c-.999-.857-1.303-1.063-4.132-1.11H9v.66l2.143-.017c2.743 0 3.278.167 4.067.814.437.351.553.617.137.3-.583-.429-.814-.643-2.918-.686h-2.143v.686l2.143-.043c1.281 0 3.257.506 3.265 1.611.009 1.106-.625 1.175-1.765 1.175-.643 0-1.706-.017-2.435 0h-1.208v.643h1.928c1.427.034 3.077.171 4.123 1.277.527.557.634.793.18.394-1.363-1.178-3.266-1.02-4.946-1.028H9v.642h2.571c2.979.043 3.502.077 4.115.493.295.214.891.827.84.883-.017.017-.159-.081-.317-.214-.583-.489-.798-.489-3.352-.519-2.263-.025-2.143.065-2.143.215s-.154.17 1.715.214c1.272.03 4.632-.232 4.02 1.954-.378 1.26-4.955 1.046-6.378 1.046-3.428 0-3.642.055-3.642.214 0 .167.312.24 4.714.214 1.328-.008 4.286 0 5.168-.45.099-.094.176-.133.176-.094 0 .094-.476.574-.801.801-.446.318-.913.34-2.615.386h-1.714l-.013.656h1.196c2.503 0 3.557-.334 4.333-1.363.347-.45.386-.394.086.112a4 4 0 0 1-1.479 1.328c-.943.45-1.174.514-4.337.553h-3v.643h2.846c2.035-.03 4.294.064 5.871-1.47.806-.806 1.14-1.646 1.14-2.953 0-1.226-.343-2.203-1.011-2.927a2.3 2.3 0 0 1-.352-.429c0-.034.099-.261.223-.514.446-.921.48-2.43.081-3.549C16.45 6.082 15.12 5.092 13.38 4.8c-.266-.043-1.581-.086-2.919-.086H8.143z"/><path fill="#42ACAA" d="M8.143 7.071c0 .223.034.232.626.202.535-.035.634-.065.655-.232.022-.163-.043-.184-.625-.184-.613 0-.656.013-.656.214m.428 1.286c0 .214.052.214 2.572.214s2.571 0 2.571-.214-.051-.214-2.571-.214-2.572 0-2.572.214"/><path fill="#17D5CF" d="M7.286 9.214v.214h3l-.022-.197c-.021-.188-.03-.188-1.5-.214L7.286 9zm3.874-.09c-.086.279.099.326 1.329.3 1.165-.03 1.225-.038 1.225-.214 0-.172-.06-.176-1.255-.206-1.085-.017-1.252 0-1.299.12m-3.017 5.237c0 .21.043.232.626.197.527-.034.63-.064.655-.231.026-.163-.047-.184-.625-.184-.609 0-.656.021-.656.218"/><path fill="#42ACAA" d="M9.857 14.357c0 .206.052.215 1.929.215s1.928-.009 1.928-.215c0-.205-.051-.214-1.928-.214s-1.929.009-1.929.214m-2.571.857c0 .206.051.215 1.714.215s1.714-.009 1.714-.215c0-.205-.051-.214-1.714-.214s-1.714.009-1.714.214"/><path fill="#17D5CF" d="M11.572 15.214c0 .206.05.215 1.07.215s1.072-.009 1.072-.215c0-.205-.051-.214-1.071-.214s-1.072.009-1.072.214m-4.286 2.572c0 .205.055.214 1.714.214s1.714-.009 1.714-.214c0-.206-.055-.215-1.714-.215s-1.714.009-1.714.215"/><path fill="#42ACAA" d="M6.429 19.071v.214h.857v-.428h-.857z"/></g><defs><clipPath id="a"><path fill="#fff" d="M0 0h24v24H0z"/></clipPath></defs></svg>
